X: 39604
T: Tell Her I Am
R: jig
M: 6/8
K: Gmajor
|:edB G3|D3 G3|D3 c2 d|BGE EB/c/d|
edB G3|D3 G3|AGF GBA|1 GFE DB/c/d:|2 GFE D2A||
|:B3 dBG|B2e dBG|AcB AGA|BGE E2 c|
B3 deg|age d2 B|cBA GBA|1 GFE D2 A:|2 GFE DB/c/d||
|:efg efg|dBG GB/c/d|e2 a aga|bge e2 d|
efg efg|dBG Ge/f/g|agf gba|gfe dB/c/d|
efg efg|dBG GB/c/d|e2 a aga|bge e2 B|
def gba|gfe d2 B|cBA GBA|GFE DB/c/d||

